doc/_static/PotentialRef.svg

<?xml version="1.0" encoding="UTF-8"?>
<svg xmlns="http://www.w3.org/2000/svg" xmlns:xlink="http://www.w3.org/1999/xlink" width="31.16pt" height="22.226pt" viewBox="0 0 31.16 22.226" version="1.1">
<defs>
<g>
<symbol overflow="visible" id="glyph0-0">
<path style="stroke:none;" d="M 5.5625 -0.296875 C 5.5625 -0.0976562 5.453125 0 5.234375 0 L 0.765625 0 C 0.660156 0 0.585938 -0.0195312 0.546875 -0.0625 C 0.515625 -0.101562 0.5 -0.164062 0.5 -0.25 L 0.5 -6.84375 C 0.5 -7 0.5625 -7.078125 0.6875 -7.078125 L 5.390625 -7.078125 C 5.503906 -7.078125 5.5625 -7.007812 5.5625 -6.875 Z M 5.046875 -0.734375 L 5.046875 -6.40625 C 5.046875 -6.519531 4.992188 -6.578125 4.890625 -6.578125 L 1.171875 -6.578125 C 1.066406 -6.578125 1.015625 -6.515625 1.015625 -6.390625 L 1.015625 -0.703125 C 1.015625 -0.640625 1.03125 -0.585938 1.0625 -0.546875 C 1.09375 -0.515625 1.15625 -0.5 1.25 -0.5 L 4.765625 -0.5 C 4.953125 -0.5 5.046875 -0.578125 5.046875 -0.734375 Z M 4.765625 -0.28125 L 0.703125 -6.671875 L 1.21875 -6.9375 L 5.359375 -0.328125 Z M 4.765625 -0.28125 "/>
</symbol>
<symbol overflow="visible" id="glyph0-1">
<path style="stroke:none;" d="M 0.859375 -7.078125 L 3.390625 -0.875 L 5.90625 -7.078125 L 6.640625 -7.078125 L 3.703125 0 L 3.078125 0 L 0.125 -7.078125 Z M 0.859375 -7.078125 "/>
</symbol>
<symbol overflow="visible" id="glyph0-2">
<path style="stroke:none;" d="M 0.671875 -1.9375 L 0.671875 -2.421875 L 3.6875 -2.421875 L 3.6875 -1.9375 Z M 0.671875 -3.078125 L 0.671875 -3.5625 L 3.6875 -3.5625 L 3.6875 -3.078125 Z M 0.671875 -3.078125 "/>
</symbol>
<symbol overflow="visible" id="glyph0-3">
<path style="stroke:none;" d="M 5.546875 -2.921875 C 5.546875 -2.335938 5.4375 -1.816406 5.21875 -1.359375 C 5.007812 -0.898438 4.710938 -0.539062 4.328125 -0.28125 C 3.953125 -0.03125 3.523438 0.09375 3.046875 0.09375 C 2.566406 0.09375 2.140625 -0.03125 1.765625 -0.28125 C 1.390625 -0.539062 1.09375 -0.898438 0.875 -1.359375 C 0.65625 -1.816406 0.546875 -2.335938 0.546875 -2.921875 C 0.546875 -3.503906 0.65625 -4.019531 0.875 -4.46875 C 1.09375 -4.925781 1.390625 -5.285156 1.765625 -5.546875 C 2.140625 -5.816406 2.566406 -5.953125 3.046875 -5.953125 C 3.523438 -5.953125 3.953125 -5.816406 4.328125 -5.546875 C 4.710938 -5.285156 5.007812 -4.925781 5.21875 -4.46875 C 5.4375 -4.019531 5.546875 -3.503906 5.546875 -2.921875 Z M 4.859375 -2.921875 C 4.859375 -3.390625 4.78125 -3.800781 4.625 -4.15625 C 4.476562 -4.519531 4.269531 -4.800781 4 -5 C 3.726562 -5.207031 3.410156 -5.3125 3.046875 -5.3125 C 2.691406 -5.3125 2.375 -5.207031 2.09375 -5 C 1.820312 -4.800781 1.609375 -4.519531 1.453125 -4.15625 C 1.296875 -3.800781 1.21875 -3.390625 1.21875 -2.921875 C 1.21875 -2.453125 1.296875 -2.035156 1.453125 -1.671875 C 1.609375 -1.316406 1.820312 -1.035156 2.09375 -0.828125 C 2.375 -0.628906 2.691406 -0.53125 3.046875 -0.53125 C 3.410156 -0.53125 3.726562 -0.628906 4 -0.828125 C 4.269531 -1.035156 4.476562 -1.316406 4.625 -1.671875 C 4.78125 -2.035156 4.859375 -2.453125 4.859375 -2.921875 Z M 4.859375 -2.921875 "/>
</symbol>
</g>
<clipPath id="clip1">
  <path d="M 22 7 L 31.160156 7 L 31.160156 22 L 22 22 Z M 22 7 "/>
</clipPath>
</defs>
<g id="surface1">
<path style=" stroke:none;fill-rule:nonzero;fill:rgb(100%,100%,100%);fill-opacity:1;" d="M 0 22.226562 L 0 0 L 31.160156 0 L 31.160156 22.226562 Z M 0 22.226562 "/>
<g style="fill:rgb(0%,0%,0%);fill-opacity:1;">
  <use xlink:href="#glyph0-1" x="3.321" y="16.913"/>
</g>
<path style="fill:none;stroke-width:0.398;stroke-linecap:butt;stroke-linejoin:miter;stroke:rgb(0%,0%,0%);stroke-opacity:1;stroke-miterlimit:10;" d="M -0.0006875 -0.00059375 L 6.764937 -0.00059375 " transform="matrix(1,0,0,-1,3.321,18.308)"/>
<g style="fill:rgb(0%,0%,0%);fill-opacity:1;">
  <use xlink:href="#glyph0-2" x="12.852" y="16.913"/>
</g>
<g style="fill:rgb(0%,0%,0%);fill-opacity:1;">
  <use xlink:href="#glyph0-3" x="19.975288" y="16.913"/>
</g>
<path style="fill:none;stroke-width:0.3985;stroke-linecap:butt;stroke-linejoin:miter;stroke:rgb(0%,0%,0%);stroke-opacity:1;stroke-miterlimit:10;" d="M 0.0015625 0.00190625 L 0.0015625 7.087844 M 0.0015625 7.087844 L 0.0015625 14.173781 " transform="matrix(1,0,0,-1,29.6,14.373)"/>
<path style=" stroke:none;fill-rule:nonzero;fill:rgb(0%,0%,0%);fill-opacity:1;" d="M 30.960938 14.371094 C 30.960938 13.621094 30.351562 13.011719 29.601562 13.011719 C 28.847656 13.011719 28.238281 13.621094 28.238281 14.371094 C 28.238281 15.125 28.847656 15.734375 29.601562 15.734375 C 30.351562 15.734375 30.960938 15.125 30.960938 14.371094 Z M 30.960938 14.371094 "/>
<g clip-path="url(#clip1)" clip-rule="nonzero">
<path style="fill:none;stroke-width:0.3985;stroke-linecap:butt;stroke-linejoin:miter;stroke:rgb(0%,0%,0%);stroke-opacity:1;stroke-miterlimit:10;" d="M 1.360937 0.00190625 C 1.360937 0.751906 0.751562 1.361281 0.0015625 1.361281 C -0.752344 1.361281 -1.361719 0.751906 -1.361719 0.00190625 C -1.361719 -0.752 -0.752344 -1.361375 0.0015625 -1.361375 C 0.751562 -1.361375 1.360937 -0.752 1.360937 0.00190625 Z M 1.360937 0.00190625 " transform="matrix(1,0,0,-1,29.6,14.373)"/>
</g>
</g>
</svg>

<svg xmlns="http://www.w3.org/2000/svg" xmlns:xlink="http://www.w3.org/1999/xlink" width="41.547" height="29.635" viewBox="0 0 31.16 22.226"><defs><symbol overflow="visible" id="a"><path style="stroke:none" d="M.86-7.078 3.39-.875l2.516-6.203h.735L3.703 0h-.625L.125-7.078Zm0 0"/></symbol><symbol overflow="visible" id="b"><path style="stroke:none" d="M.672-1.938v-.484h3.015v.485Zm0-1.14v-.485h3.015v.485Zm0 0"/></symbol><symbol overflow="visible" id="c"><path style="stroke:none" d="M5.547-2.922c0 .586-.11 1.106-.328 1.563-.211.46-.508.82-.89 1.078-.376.25-.806.375-1.282.375-.48 0-.906-.125-1.281-.375A2.654 2.654 0 0 1 .875-1.36C.656-1.816.547-2.336.547-2.922c0-.582.11-1.098.328-1.547.219-.457.516-.816.89-1.078.376-.27.801-.406 1.282-.406.476 0 .906.137 1.281.406.383.262.68.621.89 1.078.22.45.329.965.329 1.547Zm-.688 0c0-.469-.078-.879-.234-1.234C4.477-4.52 4.27-4.801 4-5a1.534 1.534 0 0 0-.953-.313c-.356 0-.672.106-.953.313-.274.2-.485.48-.64.844-.157.355-.235.765-.235 1.234s.078.887.234 1.25c.156.356.367.637.64.844.282.2.598.297.954.297.363 0 .68-.098.953-.297.27-.207.477-.488.625-.844.156-.363.234-.781.234-1.25Zm0 0"/></symbol><clipPath id="d"><path d="M22 7h9.16v15H22Zm0 0"/></clipPath></defs><path style="stroke:none;fill-rule:nonzero;fill:#fff;fill-opacity:1" d="M0 22.227V0h31.16v22.227Zm0 0"/><use xlink:href="#a" x="3.321" y="16.913" style="fill:#000;fill-opacity:1"/><path style="fill:none;stroke-width:.398;stroke-linecap:butt;stroke-linejoin:miter;stroke:#000;stroke-opacity:1;stroke-miterlimit:10" d="M0 0h6.765" transform="matrix(1 0 0 -1 3.321 18.308)"/><use xlink:href="#b" x="12.852" y="16.913" style="fill:#000;fill-opacity:1"/><use xlink:href="#c" x="19.975" y="16.913" style="fill:#000;fill-opacity:1"/><path style="fill:none;stroke-width:.3985;stroke-linecap:butt;stroke-linejoin:miter;stroke:#000;stroke-opacity:1;stroke-miterlimit:10" d="M.002.002v7.086m0 0v7.086" transform="matrix(1 0 0 -1 29.6 14.373)"/><path style="stroke:none;fill-rule:nonzero;fill:#000;fill-opacity:1" d="M30.96 14.371a1.36 1.36 0 1 0-2.72.002 1.36 1.36 0 0 0 2.72-.002Zm0 0"/><g clip-path="url(#d)"><path style="fill:none;stroke-width:.3985;stroke-linecap:butt;stroke-linejoin:miter;stroke:#000;stroke-opacity:1;stroke-miterlimit:10" d="M1.36.002A1.36 1.36 0 1 1-1.36 0a1.36 1.36 0 0 1 2.72.002Zm0 0" transform="matrix(1 0 0 -1 29.6 14.373)"/></g></svg>
